X:1
T: The Frog Galliard 
T:John Dowland (1563-1626)
T:6th string  D
%%score { ( 1 2 3 ) | ( 4 5 6 ) }
L:1/8
Q:1/4=100
M:3/4
K:D
V:1 treble-8 nm="Guitare classique [Tablature]"
V:2 treble-8 
V:3 treble-8 
V:4 tab stafflines=6 strings=D2,A2,D3,G3,B3,E4 nostems 
V:5 tab stafflines=6 strings=D2,A2,D3,G3,B3,E4 nostems 
V:6 tab stafflines=6 strings=D2,A2,D3,G3,B3,E4 nostems 
V:1
 !3!f4 e2 | !4!d4"^BII" c2 | B3 !1!c !2!d2 |"^BII" !1!c3"^_________________________" !2!d !4!e2 | %4
 !1!f3 !2!g !4!a2 | !2!g3 !1!f e!2!d- |"^BII_________________" d[Ac]- [Ac]>!2!d c!3!B | [Ac]6 | %8
 !3!f3 f e2 | d3 d"^BII" c2 | B>!1!A B!1!c !2!d2 | e>!4!d e!3!f !4!g2 | %12
"^II" !1!f>!2!g !4!a!1!f !2!g!1!f | e!2!d !1!f2 !0!e2- | e!1!!2![Ad]- [Ad]4 | !1!!2![Ad]6 || %16
 !2!f!3!d/e/ !2!f/!3!d/e/!3!f/ e2 | !4!dB/!2!c/ !4!d/B/!2!c/!2!d/"^II" c2 | %18
 [GB]!1!E/!3!F/ G/!1!A/B/!1!c/ !2!d2 |"^II" cA/!3!B/ !1!c/B/c/d/ e2 | %20
"^II" f!2!d/!4!e/ !1!f/!4!e/!1!f/!2!g/ !1!f/!2!g/!4!a | !2!g3"^II" [Af] [Be]!2!d | %22
"^II__________________________________" cA/!3!B/ c/B/c/!2!d/ !4!e/d/c/!3!B/ | %23
 c!2!g/f/ !4!e/d/c/!3!B/ A2 || (3!1!f!2!g!4!a (3!2!d!4!e!1!f (3!0!e!3!de | %25
 (3!3!d!0!e!2!f (3!0!B!2!c!2!d (3!1!c!0!B!1!c | (3!0!B!1!c!2!d (3!0!G!1!A!0!B (3B!1!c!2!d | %27
"^II" (3!1!c!2!d!4!e (3!1!A!3!B!1!c (3c!2!d!4!e | (3!1!f!2!g!4!a (3!2!d!4!e!1!f (3!0!e!1!f!2!g | %29
 (3!0!G!1!A!0!B (3!1!c!2!d!4!e (3!1!A!3!B!1!c | !2!d6 | !2!d6 ||"^III___________" d2 !1!g2 g2 | %33
 !1!g3 !2!a !4!b2 | !4!a4"^II" f2 | !2!d3 !4!e"^II" !1!f2 | !3!g3 g !2!fe | e2 !0!e2 !4!^d2 | %38
"^BII" [Be]6 | [Be]6 || !1!f3 f e2 | !2!d3 d"^II" c2 | B>!1!A B!1!c !2!d2 | %43
"^II_____________" !1!c>!3!B c!2!d !4!e2 |"^II_____________" !1!f>!2!g !4!a!1!f !2!g!1!f | %45
 e!2!d"^II" !1!f2 e2- | e!1!!2![Ad]- [Ad]4 | !2!d6 | %48
 !4!!2!!1![GBd]G/!1!A/ !0!B/!1!A/B/!1!=c/ !3!de/!1!f/ | %49
 !4!g!2!A/B/ !1!=c/!3!d/e/!1!f/ !2!g/e/!1!f/!2!g/ | !4!a!1!f/!2!g/ !4!a2 !1![Af]2 | %51
 !3!!1!!2![FAd]G/!1!A/ B/!1!=c/!3!d/e/ !2!f/!3!d/e/!2!f/ | !4!g!0!e/!2!f/ g/e/f/g/ !2!fe | %53
 [Be]2 !0!e!4!^d/!2!c/ !4!d/e/!2!c/!4!d/ | z e- e4 | [Be]6 | %56
 !2!f/e/f/!4!g/ !2!f/!3!d/e/!2!f/ e/!2!c/!3!d/e/ | %57
 !4!d/!2!c/!4!d/e/ !4!d/B/!2!c/!4!d/"^II" !1!c/!1!A/!4!B/!1!c/ | %58
 !0!B/!1!A/!0!B/!4!=c/ !0!B/G/B/!1!^c/ !2!d/B/!1!c/!3!d/ | %59
 !2!c/!0!B/!2!c/!3!d/ !2!c/!1!A/!2!c/!3!d/ e/!2!f/!3!g/e/ | %60
 !2!f/!0!e/!2!f/!3!g/ f/!3!d/e/!2!f/ !3!g/f/g/f/ | %61
 !3!g/!2!f/!0!e/!3!d/ !2!c/B/!2!c/!3!d/ e/!3!d/e/!2!c/ |[Q:1/4=100] !3![Dd]4 z2 | %63
[Q:1/4=80] !2!d6 |] %64
V:2
 !1!!2![Ad]4 !1!!2![Ac]2 | !3!!2![FB]4 A2 | G4 !3!!1![FA]2 | !1!E6 | !1!A6 | B4 z2 | z2 E4 | E6 | %8
 !2!A4 !1!!2![EA]2 | [FB]4 A2 | G4 !3!!1![FA]2 | !1!!2![EA]4 z2 | A6 | x4 z !0!G- | %14
 G!3!F- F>!0!G !3!F!1!E | !3!F6 || !1!A4 !1!!2![EA]2 | x4 A2 | x x x2 !3!!1![FA]2 | E6 | A6 | %21
 B4 x2 | E6 | E6 || x6 | x6 | x6 | x6 | x6 | x6 | (3z !1!A!3!B (3AB!0!G (3!3!FG!1!E | %31
 !3!!1![FA]6 || !4!!1!!2![GB]6 | !0![Gd]6 | !1!A4 A2 | !1!A4 A2 | !0!B4 z2 | [GB]2 !3!F4 | %38
 !1!^G2- G!4!A !1!G!4!F | !1!^G6 || [DA]4 !1!A2 | !3!!4![FB]4 A2 | [DG]4 !3!!1![FA]2 | E6 | !1!A6 | %45
 z2 A3 !0!G- | G!3!F- F>G F!1!E | !3!!1![FA]6 | x6 | x6 | x6 | x6 | x6 | G2 !3!F4 | %54
 z !1![^GB]- [GB]!3!A/!1!G/ !4!F/!1!G/!3!A/!4!F/ | !1!^G6 | x6 | x6 | x6 | x6 | x6 | x6 | %62
 z !1!=c/B/ !2!A/B/!1!c/B/ !2!A/G/!4!F/!2!E/ | !3!!1![FA]6 |] %64
V:3
 D,4 A,2 | !1!B,4 !3!F,2 | !4!G,4 D,2 | A,6 | D,6 | !1!E,2 !3!F,2 !4!G,2 | A,6 | A,2 A,4 | %8
 D,4 A,2 | B,4 !3!F,2 | !4!G,4 D,2 | A,4 x2 | D,4 !4!G,2- | G,2 A,4 | D,2 !0!D4 | D,2 !0!D4 || %16
 D,4 A,2 | !1!B,4 !3!F,2 | !4!G,4 D,2 | A,6 | D,6 | !1!E,2 !3!F,2 !4!G,2 | A,6 | A,6 || D,4 A,2 | %25
 !1!B,4 !3!F,2 | !4!G,6 | A,6 | D,4 !4!G,2- | G,2 A,4 | D,6 | D,2 !4!D4 || !3!G,6 | x6 | %34
 !3!F2 !0!D4 | D2 D,2 !0!D2 | !1!E,4 A,2 | !1!E,2 !1!B,4 | !2!E,2 !3!E4 | !2!E,2 !3!E4 || D,4 A,2 | %41
 !1!B,4 !3!F,2 | !4!G,4 D,2 | A,6 | D,4 !4!G,2- | G,2 A,4 | D,2 !0!D4 | D,2 !0!D4 | G,4 z2 | %49
 !0![GB]2 z4 | !3!F3 !0!D3 | D,6 | !1!E,4 A,2 | !1!E,2 !1!B,4 | !2!E,2 !2!E4 | !2!E,2 !3!E4 | %56
 D,4 A,2 | !1!B,4 !3!F,2 | !3!G,4 D,2 | A,6 | D,4 !0![G-B]2 | [GB]2 A,4 | D,6 | D,2 !0!D4 |] %64
V:4
 !1!F4 !1!E2 | !2!D4 !2!C2 | !2!B,3 !2!C !2!D2 | !2!C3 !2!D !1!E2 | !1!F3 !1!G !1!A2 | %5
 !1!G3 !1!F !1!E !2!D- | !2!D [!3!A,!2!C]- [!3!A,!2!C]3/2 !2!D/ !2!C !3!B, | [!3!A,!2!C]6 | %8
 !1!F3 !1!F !1!E2 | !2!D3 !2!D !2!C2 | !2!B,3/2 !3!A,/ !2!B, !2!C !2!D2 | %11
 !1!E3/2 !2!D/ !1!E !1!F !1!G2 | !1!F3/2 !1!G/ !1!A !1!F !1!G !1!F | !1!E !2!D !1!F2 !1!E2- | %14
 !1!E [!3!A,!2!D]- [!3!A,!2!D]4 | [!3!A,!2!D]6 || !1!F !2!D/ !1!E/ !1!F/ !2!D/ !1!E/ !1!F/ !1!E2 | %17
 !2!D !2!B,/ !2!C/ !2!D/ !2!B,/ !2!C/ !2!D/ !2!C2 | %18
 [!3!G,!2!B,] !4!E,/ !4!F,/ !3!G,/ !3!A,/ !2!B,/ !2!C/ !2!D2 | %19
 !2!C !3!A,/ !3!B,/ !2!C/ !3!B,/ !2!C/ !2!D/ !2!E2 | %20
 !1!F !2!D/ !2!E/ !1!F/ !2!E/ !1!F/ !1!G/ !1!F/ !1!G/ !1!A | !1!G3 [!3!A,!1!F] [!2!B,!1!E] !2!D | %22
 !2!C !3!A,/ !3!B,/ !2!C/ !3!B,/ !2!C/ !2!D/ !2!E/ !2!D/ !2!C/ !3!B,/ | %23
 !2!C !1!G/ !1!F/ !2!E/ !2!D/ !2!C/ !3!B,/ !3!A,2 || %24
 (3!1!F !1!G !1!A (3!2!D !2!E !1!F (3!1!E !2!D !1!E | %25
 (3!2!D !1!E !1!F (3!2!B, !2!C !2!D (3!2!C !2!B, !2!C | %26
 (3!2!B, !2!C !2!D (3!3!G, !3!A, !2!B, (3!2!B, !2!C !2!D | %27
 (3!2!C !2!D !2!E (3!3!A, !3!B, !2!C (3!2!C !2!D !2!E | %28
 (3!1!F !1!G !1!A (3!2!D !2!E !1!F (3!1!E !1!F !1!G | %29
 (3!3!G, !3!A, !2!B, (3!2!C !2!D !2!E (3!3!A, !3!B, !2!C | !2!D6 | !2!D6 || !2!D2 !1!G2 !1!G2 | %33
 !1!G3 !1!A !1!B2 | !1!A4 !1!F2 | !2!D3 !1!E !1!F2 | !1!G3 !1!G !1!F !1!E | !1!E2 !1!E2 !2!^D2 | %38
"^BII" [!2!B,!1!E]6 | [!2!B,!1!E]6 || !1!F3 !1!F !2!E2 | !2!D3 !2!D !2!C2 | %42
 !2!B,3/2 !3!A,/ !2!B, !2!C !2!D2 | !2!C3/2 !3!B,/ !2!C !2!D !2!E2 | %44
 !1!F3/2 !1!G/ !1!A !1!F !1!G !1!F | !1!E !2!D !1!F2 !2!E2- | !2!E [!3!A,!2!D]- [!3!A,!2!D]4 | %47
 !2!D6 | [!4!G,!3!B,!2!D] !3!G,/ !3!A,/ !2!B,/ !3!A,/ !2!B,/ !2!=C/ !2!D !1!E/ !1!F/ | %49
 !1!G !3!A,/ !2!B,/ !2!=C/ !2!D/ !1!E/ !1!F/ !1!G/ !1!E/ !1!F/ !1!G/ | %50
 !1!A !1!F/ !1!G/ !1!A2 [!3!A,!1!F]2 | %51
 [!4!F,!3!A,!2!D] !3!G,/ !3!A,/ !2!B,/ !2!=C/ !2!D/ !1!E/ !1!F/ !2!D/ !1!E/ !1!F/ | %52
 !1!G !1!E/ !1!F/ !1!G/ !1!E/ !1!F/ !1!G/ !1!F !1!E | %53
 [!2!B,!1!E]2 !1!E !2!^D/ !2!C/ !2!D/ !1!E/ !2!C/ !2!D/ | x !1!E- !1!E4 | [!2!B,!1!E]6 | %56
 !1!F/ !1!E/ !1!F/ !1!G/ !1!F/ !2!D/ !1!E/ !1!F/ !1!E/ !2!C/ !2!D/ !1!E/ | %57
 !2!D/ !2!C/ !2!D/ !1!E/ !2!D/ !2!B,/ !2!C/ !2!D/ !2!C/ !3!A,/ !3!B,/ !2!C/ | %58
 !2!B,/ !3!A,/ !2!B,/ !2!=C/ !2!B,/ !3!G,/ !2!B,/ !2!^C/ !2!D/ !2!B,/ !2!C/ !2!D/ | %59
 !2!C/ !2!B,/ !2!C/ !2!D/ !2!C/ !3!A,/ !2!C/ !2!D/ !1!E/ !1!F/ !1!G/ !1!E/ | %60
 !1!F/ !1!E/ !1!F/ !1!G/ !1!F/ !2!D/ !1!E/ !1!F/ !1!G/ !1!F/ !1!G/ !1!F/ | %61
 !1!G/ !1!F/ !1!E/ !2!D/ !2!C/ !2!B,/ !2!C/ !2!D/ !1!E/ !2!D/ !1!E/ !2!C/ | [!4!D,!2!D]4 x2 | %63
 !2!D6 |] %64
V:5
 [!3!A,!2!D]4 [!3!A,!2!C]2 | [!4!F,!3!B,]4 !3!A,2 | !3!G,4 [!4!F,!3!A,]2 | !4!E,6 | !3!A,6 | %5
 !2!B,4 x2 | x2 !4!E,4 | !4!E,6 | !3!A,4 [!4!E,!3!A,]2 | [!4!F,!3!B,]4 !3!A,2 | %10
 !3!G,4 [!4!F,!3!A,]2 | [!4!E,!3!A,]4 x2 | !3!A,6 | x4 x !3!G,- | %14
 !3!G, !4!F,- !4!F,3/2 !3!G,/ !4!F, !4!E, | !4!F,6 || !3!A,4 [!4!E,!3!A,]2 | x4 !3!A,2 | %18
 x x x2 [!4!F,!3!A,]2 | !4!E,6 | !3!A,6 | !2!B,4 x2 | !4!E,6 | !4!E,6 || x6 | x6 | x6 | x6 | x6 | %29
 x6 | (3x !3!A, !3!B, (3!3!A, !3!B, !3!G, (3!4!F, !3!G, !4!E, | [!4!F,!3!A,]6 || [!4!G,!3!B,]6 | %33
 [!3!G,!2!D]6 | !3!A,4 !3!A,2 | !3!A,4 !3!A,2 | !2!B,4 x2 | [!3!G,!2!B,]2 !4!F,4 | %38
 !3!^G,2- !3!G, !3!A, !3!G, !4!F, | !3!^G,6 || [!4!D,!3!A,]4 !3!A,2 | [!4!F,!3!B,]4 !3!A,2 | %42
 [!4!D,!3!G,]4 [!4!F,!3!A,]2 | !4!E,6 | !3!A,6 | x2 !3!A,3 !3!G,- | %46
 !3!G, !4!F,- !4!F,3/2 !3!G,/ !4!F, !4!E, | [!4!F,!3!A,]6 | x6 | x6 | x6 | x6 | x6 | %53
 !3!G,2 !4!F,4 | x [!3!^G,!2!B,]- [!3!G,!2!B,] !3!A,/ !3!G,/ !4!F,/ !3!G,/ !3!A,/ !4!F,/ | %55
 !3!^G,6 | x6 | x6 | x6 | x6 | x6 | x6 | %62
 x !2!=C/ !2!B,/ !3!A,/ !2!B,/ !2!C/ !2!B,/ !3!A,/ !3!G,/ !4!F,/ !4!E,/ | [!4!F,!3!A,]6 |] %64
V:6
 !6!D,,4 !5!A,,2 | !5!B,,4 !6!F,,2 | !6!G,,4 !6!D,,2 | !5!A,,6 | !6!D,,6 | %5
 !6!E,,2 !6!F,,2 !6!G,,2 | !5!A,,6 | !5!A,,2 !5!A,,4 | !6!D,,4 !5!A,,2 | !5!B,,4 !6!F,,2 | %10
 !6!G,,4 !6!D,,2 | !5!A,,4 x2 | !6!D,,4 !6!G,,2- | !6!G,,2 !5!A,,4 | !6!D,,2 !5!D,4 | %15
 !6!D,,2 !4!D,4 || !6!D,,4 !5!A,,2 | !5!B,,4 !6!F,,2 | !6!G,,4 !6!D,,2 | !5!A,,6 | !6!D,,6 | %21
 !6!E,,2 !6!F,,2 !6!G,,2 | !5!A,,6 | !5!A,,6 || !6!D,,4 !5!A,,2 | !5!B,,4 !6!F,,2 | !6!G,,6 | %27
 !5!A,,6 | !6!D,,4 !6!G,,2- | !6!G,,2 !5!A,,4 | !6!D,,6 | !6!D,,2 !5!D,4 || !6!G,,6 | x6 | %34
 !4!F,2 !4!D,4 | !4!D,2 !6!D,,2 !4!D,2 | !6!E,,4 !5!A,,2 | !6!E,,2 !5!B,,4 | !6!E,,2 !4!E,4 | %39
 !6!E,,2 !4!E,4 || !6!D,,4 !5!A,,2 | !5!B,,4 !6!F,,2 | !6!G,,4 !6!D,,2 | !5!A,,6 | %44
 !6!D,,4 !6!G,,2- | !6!G,,2 !5!A,,4 | !6!D,,2 !5!D,4 | !6!D,,2 !4!D,4 | !6!G,,4 x2 | %49
 [!3!G,!2!B,]2 x4 | !4!F,3 !4!D,3 | !6!D,,6 | !6!E,,4 !5!A,,2 | !6!E,,2 !5!B,,4 | !6!E,,2 !4!E,4 | %55
 !6!E,,2 !4!E,4 | !6!D,,4 !5!A,,2 | !5!B,,4 !6!F,,2 | !6!G,,4 !6!D,,2 | !5!A,,6 | %60
 !6!D,,4 [!3!G,-!2!B,]2 | [!3!G,!2!B,]2 !5!A,,4 | !6!D,,6 | !6!D,,2 !4!D,4 |] %64

